svg/media/repeat_line.svg

<?xml version="1.0" encoding="UTF-8"?>
<svg width="24px" height="24px" viewBox="0 0 24 24" version="1.1" xmlns="http://www.w3.org/2000/svg" xmlns:xlink="http://www.w3.org/1999/xlink">
    <title>repeat_line</title>
    <g id="Icon" stroke="none" stroke-width="1" fill="none" fill-rule="evenodd">
        <g id="Media" transform="translate(0.000000, -96.000000)" fill-rule="nonzero">
            <g id="repeat_line" transform="translate(0.000000, 96.000000)">
                <path d="M0,0 L0,24 L24,24 L24,0 L0,0 Z M11.4065,23.2578 L11.4181,23.2595 L11.4891,23.295 L11.5081,23.2987 L11.5233,23.295 L11.5943,23.2595 C11.6042,23.2564 11.613,23.259 11.6179,23.2649 L11.622,23.2758 L11.6391,23.7031 L11.6341,23.7235 L11.6231,23.7357 L11.5195,23.8097 L11.5047,23.8136 L11.4929,23.8097 L11.3893,23.7357 L11.3767,23.7197 L11.3733,23.7031 L11.3904,23.2758 C11.3924,23.2657 11.399,23.2593 11.4065,23.2578 Z M11.1416,23.1453 L11.1555,23.1473 L11.3402,23.2397 L11.3501,23.2499 L11.3528,23.2611 L11.3349,23.6906 L11.3301,23.7034 L11.3216,23.7105 L11.1207,23.8032 C11.1086,23.8069 11.0978,23.803 11.0922,23.7952 L11.0882,23.7812 L11.1223,23.1665 C11.1247,23.1546 11.1326,23.147 11.1416,23.1453 Z M11.857,23.1473 C11.8668,23.1424 11.8778,23.1453 11.8844,23.1526 L11.8901,23.1665 L11.9242,23.7812 C11.9249,23.7927 11.9172,23.8019 11.9074,23.8046 L11.8917,23.8032 L11.6908,23.7105 L11.6814,23.7024 L11.6775,23.6906 L11.6596,23.2611 L11.6628,23.2485 L11.6722,23.2397 L11.857,23.1473 Z" id="MingCute"></path>
                <path d="M20,9 C20.51285,9 20.9355092,9.38603566 20.9932725,9.8833779 L21,10 L21,15 C21,17.1421576 19.3159949,18.8910766 17.199637,18.9951046 L17,19 L8.10686,19 L8.0876184,19.4148512 L8.0876184,19.4148512 L8.05317,19.934 L8.05317,19.934 C8.02607,20.2796 7.70123,20.4908 7.42161,20.3446 L7.11568328,20.1803672 L7.11568328,20.1803672 L6.75589625,19.9769375 C6.69178406,19.9397344 6.6256832,19.9008742 6.55772143,19.8603451 L6.12864178,19.5970479 C6.05374734,19.5497953 5.9772475,19.50085 5.89927,19.4502 L5.43573375,19.1401375 C5.36316625,19.0901594 5.29298531,19.0411312 5.22525437,18.9932039 L4.84877625,18.7200555 L4.84877625,18.7200555 L4.53414312,18.4805633 C4.48702719,18.4438547 4.442615,18.40885 4.40097,18.3757 C4.16519,18.188 4.17569,17.8101 4.4236,17.6138 L4.70357859,17.3969328 L4.70357859,17.3969328 L5.04447875,17.1445625 L5.04447875,17.1445625 L5.44402703,16.8629609 L5.44402703,16.8629609 L5.89995,16.5584 L5.89995,16.5584 L6.36198203,16.2667391 L6.36198203,16.2667391 L6.77823125,16.0184375 L6.77823125,16.0184375 L7.14274734,15.8125672 L7.14274734,15.8125672 L7.44958,15.6482 L7.44958,15.6482 C7.72497,15.5047 8.02146,15.6839 8.04793,16.0078 L8.07339368,16.3553984 L8.07339368,16.3553984 L8.09669544,16.7695632 L8.09669544,16.7695632 L8.10659,17 L17,17 C18.0543909,17 18.9181678,16.18415 18.9945144,15.1492661 L19,15 L19,10 C19,9.44771 19.4477,9 20,9 Z M16.5784,3.65537 L16.8843359,3.81961469 L16.8843359,3.81961469 L17.2441125,4.02306 C17.3082219,4.06026563 17.3743195,4.09912813 17.4422779,4.13965926 L17.8713369,4.40296371 C17.9462281,4.45021641 18.022725,4.49916125 18.1007,4.54981 L18.5642531,4.85984438 C18.6368234,4.90981938 18.707007,4.95884516 18.7747402,5.00677094 L19.1512254,5.27991938 L19.1512254,5.27991938 L19.4658449,5.51943031 C19.5129562,5.55614359 19.5573625,5.59115375 19.599,5.62431 C19.8348,5.81202 19.8243,6.1899 19.5764,6.38622 L19.2964094,6.6030625 L19.2964094,6.6030625 L18.9555,6.8554175 L18.9555,6.8554175 L18.5559406,7.13701125 L18.5559406,7.13701125 L18.1,7.44157 L18.1,7.44157 L17.6379797,7.73325781 L17.6379797,7.73325781 L17.2217375,7.981575 L17.2217375,7.981575 L16.8572266,8.18744219 L16.8572266,8.18744219 L16.5504,8.35178 L16.5504,8.35178 C16.275,8.49534 15.9785,8.31614 15.9521,7.99217 L15.9266136,7.6445908 L15.9266136,7.6445908 L15.9032968,7.230426 C15.89976,7.1561388 15.89644,7.079294 15.8934,7 L7,7 C5.89543,7 5,7.89543 5,9 L5,14 C5,14.5523 4.55228,15 4,15 C3.44772,15 3,14.5523 3,14 L3,9 C3,6.79086 4.79086,5 7,5 L15.8931,5 L15.9123768,4.5851728 L15.9123768,4.5851728 L15.9349944,4.2246144 C15.938908,4.169272 15.94286,4.116362 15.9468,4.06597 C15.9739,3.72042 16.2988,3.50915 16.5784,3.65537 Z" id="形状" fill="#09244B"></path>
            </g>
        </g>
    </g>
</svg>

<svg xmlns="http://www.w3.org/2000/svg" width="24" height="24"><g fill="none" fill-rule="nonzero"><path d="M0 0v24h24V0H0Zm11.407 23.258.011.002.071.035.02.004.014-.004.071-.036c.01-.003.019 0 .024.006l.004.01.017.428-.005.02-.01.013-.104.074-.015.004-.012-.004-.104-.074-.012-.016-.004-.017.017-.427c.002-.01.009-.017.016-.018Zm-.265-.113.014.002.184.093.01.01.003.011-.018.43-.005.012-.008.008-.201.092c-.012.004-.023 0-.029-.008l-.004-.014.034-.614c.003-.012.01-.02.02-.022Zm.715.002a.023.023 0 0 1 .027.006l.006.014.034.614c0 .012-.007.02-.017.024l-.015-.002-.201-.093-.01-.008-.003-.011-.018-.43.003-.012.01-.01.184-.092Z"/><path fill="#09244B" d="M20 9a1 1 0 0 1 .993.883L21 10v5a4 4 0 0 1-3.8 3.995L17 19H8.107l-.02.415-.034.519c-.027.346-.352.557-.631.41l-.306-.164-.36-.203-.198-.117-.43-.263a20.62 20.62 0 0 1-.229-.147l-.463-.31-.21-.147-.377-.273-.315-.24a16.254 16.254 0 0 1-.133-.104c-.236-.188-.225-.566.023-.762l.28-.217.34-.252.4-.282.456-.305.462-.291.416-.249.365-.205.307-.165c.275-.143.571.036.598.36l.025.347.024.415.01.23H17a2 2 0 0 0 1.995-1.85L19 15v-5a1 1 0 0 1 1-1Zm-3.422-5.345.306.165.36.203.198.117.43.263.229.147.463.31.21.147.377.273.315.24.133.104c.236.188.225.566-.023.762l-.28.217-.34.252-.4.282-.456.305-.462.291-.416.249-.365.205-.307.165c-.275.143-.572-.036-.598-.36l-.025-.347-.024-.415a24.926 24.926 0 0 1-.01-.23H7a2 2 0 0 0-2 2v5a1 1 0 1 1-2 0V9a4 4 0 0 1 4-4h8.893l.02-.415.022-.36.012-.159c.027-.346.352-.557.631-.41Z"/></g></svg>
